Site26/img/svg/video__play.svg

<svg width="326" height="316" fill="none" xmlns="http://www.w3.org/2000/svg">
  <g filter="url(#a)">
    <ellipse cx="156.929" cy="149.037" rx="56" ry="48.5" fill="#A597FD"/>
  </g>
  <g filter="url(#b)">
    <ellipse cx="185.429" cy="184.537" rx="40.5" ry="31" fill="#00FFCB"/>
  </g>
  <path d="M221.569 150.527c7.296 4.241 7.296 14.779 0 19.02l-76.612 44.535c-7.333 4.263-16.528-1.028-16.528-9.51v-89.07c0-8.482 9.195-13.773 16.528-9.51l76.612 44.535Z" fill="url(#c)"/>
  <path d="M254.131 90.7279c17.247 22.3231 25.454 50.2831 23 78.3471-2.454 28.064-15.393 54.188-36.254 73.202-20.862 19.015-48.127 29.535-76.401 29.478-28.274-.056-55.497-10.685-76.2818-29.782l1.1477-1.24c20.4731 18.811 47.2881 29.28 75.1371 29.336 27.85.055 54.707-10.307 75.255-29.036 20.549-18.729 33.293-44.461 35.711-72.105 2.417-27.643-5.668-55.183-22.655-77.1713l1.341-1.0288Z" fill="#FF598E"/>
  <path d="M57.3252 193.874c-7.3766-22.723-7.3026-47.192.2113-69.863 7.5139-22.672 22.0776-42.3677 41.5813-56.2353C118.621 53.9081 142.052 46.589 166.017 46.8786c23.964.2896 47.217 8.1729 66.39 22.508l-1.015 1.3489c-18.886-14.12-41.79-21.8851-65.395-22.1704-23.605-.2853-46.684 6.924-65.895 20.5836C80.8903 82.8083 66.5452 102.209 59.144 124.54c-7.4013 22.331-7.4742 46.434-.2082 68.816l-1.6106.518Z" fill="#00FFCB"/>
  <defs>
    <filter id="a" x=".929" y=".5371" width="312" height="297" filterUnits="userSpaceOnUse" color-interpolation-filters="sRGB">
      <feFlood flood-opacity="0" result="BackgroundImageFix"/>
      <feBlend in="SourceGraphic" in2="BackgroundImageFix" result="shape"/>
      <feGaussianBlur stdDeviation="50" result="effect1_foregroundBlur_2027_82"/>
    </filter>
    <filter id="b" x="44.929" y="53.5371" width="281" height="262" filterUnits="userSpaceOnUse" color-interpolation-filters="sRGB">
      <feFlood flood-opacity="0" result="BackgroundImageFix"/>
      <feBlend in="SourceGraphic" in2="BackgroundImageFix" result="shape"/>
      <feGaussianBlur stdDeviation="50" result="effect1_foregroundBlur_2027_82"/>
    </filter>
    <linearGradient id="c" x1="164.929" y1="86.5527" x2="164.929" y2="233.528" gradientUnits="userSpaceOnUse">
      <stop offset=".0463" stop-color="#00FFCB"/>
      <stop offset=".5732" stop-color="#A597FD"/>
      <stop offset="1" stop-color="#FF598E"/>
    </linearGradient>
  </defs>
</svg>

<svg width="326" height="316" viewBox="0 0 326 316" fill="none" xmlns="http://www.w3.org/2000/svg">
<g filter="url(#filter0_f_2027_82)">
<ellipse cx="156.929" cy="149.037" rx="56" ry="48.5" fill="#A597FD"/>
</g>
<g filter="url(#filter1_f_2027_82)">
<ellipse cx="185.429" cy="184.537" rx="40.5" ry="31" fill="#00FFCB"/>
</g>
<path d="M221.569 150.527C228.865 154.768 228.865 165.306 221.569 169.547L144.957 214.082C137.624 218.345 128.429 213.054 128.429 204.572L128.429 115.502C128.429 107.02 137.624 101.729 144.957 105.992L221.569 150.527Z" fill="url(#paint0_linear_2027_82)"/>
<path d="M254.131 90.7279C271.378 113.051 279.585 141.011 277.131 169.075C274.677 197.139 261.738 223.263 240.877 242.277C220.015 261.292 192.75 271.812 164.476 271.755C136.202 271.699 108.979 261.07 88.1942 241.973L89.3419 240.733C109.815 259.544 136.63 270.013 164.479 270.069C192.329 270.124 219.186 259.762 239.734 241.033C260.283 222.304 273.027 196.572 275.445 168.928C277.862 141.285 269.777 113.745 252.79 91.7567L254.131 90.7279Z" fill="#FF598E"/>
<path d="M57.3252 193.874C49.9486 171.151 50.0226 146.682 57.5365 124.011C65.0504 101.339 79.6141 81.6433 99.1178 67.7757C118.621 53.9081 142.052 46.589 166.017 46.8786C189.981 47.1682 213.234 55.0515 232.407 69.3866L231.392 70.7355C212.506 56.6155 189.602 48.8504 165.997 48.5651C142.392 48.2798 119.313 55.4891 100.102 69.1487C80.8903 82.8083 66.5452 102.209 59.144 124.54C51.7427 146.871 51.6698 170.974 58.9358 193.356L57.3252 193.874Z" fill="#00FFCB"/>
<defs>
<filter id="filter0_f_2027_82" x="0.928955" y="0.537109" width="312" height="297" filterUnits="userSpaceOnUse" color-interpolation-filters="sRGB">
<feFlood flood-opacity="0" result="BackgroundImageFix"/>
<feBlend mode="normal" in="SourceGraphic" in2="BackgroundImageFix" result="shape"/>
<feGaussianBlur stdDeviation="50" result="effect1_foregroundBlur_2027_82"/>
</filter>
<filter id="filter1_f_2027_82" x="44.929" y="53.5371" width="281" height="262" filterUnits="userSpaceOnUse" color-interpolation-filters="sRGB">
<feFlood flood-opacity="0" result="BackgroundImageFix"/>
<feBlend mode="normal" in="SourceGraphic" in2="BackgroundImageFix" result="shape"/>
<feGaussianBlur stdDeviation="50" result="effect1_foregroundBlur_2027_82"/>
</filter>
<linearGradient id="paint0_linear_2027_82" x1="164.929" y1="86.5527" x2="164.929" y2="233.528" gradientUnits="userSpaceOnUse">
<stop offset="0.0462938" stop-color="#00FFCB"/>
<stop offset="0.573187" stop-color="#A597FD"/>
<stop offset="1" stop-color="#FF598E"/>
</linearGradient>
</defs>
</svg>
